archdroid-icon-theme/Archdroid-Indigo/apps/scalable/gnome-inhibit-applet.svg

<svg fill="#3F51B5" height="48" viewBox="0 0 48 48" width="48" xmlns="http://www.w3.org/2000/svg"><path d="m31 4c-5.146592 0-9.823782 1.957523-13.367187 5.148438l6.978515 6.978515c2.283911-5.320646 6.811656-9.453469 12.388672-11.207031-1.89-.6-3.91-.919922-6-.919922zm-22.171875 2-2.828125 2.828125 6.84375 6.84375c-1.172717 2.535438-1.84375 5.348692-1.84375 8.328125 0 11.05 8.95 20 20 20 2.09 0 4.11-.329922 6-.919922-7.519559-2.36435-13.121281-9.054924-13.898437-17.15039l18.253906 18.253906 2.828125-2.828125-20.867188-20.867188-8.375-8.375z" fill="#3F51B5"/></svg>

<svg fill="#3F51B5" height="48" version="1.1" viewBox="0 0 48 48" width="48" xmlns="http://www.w3.org/2000/svg"><path d="M31 4C25.853408 4 21.176218 5.957523 17.632813 9.148438L24.611328 16.126953C26.895239 10.806307 31.422984 6.673484 37 4.919922 35.11 4.319922 33.09 4 31 4zM8.828125 6L6 8.828125 12.84375 15.671875C11.671033 18.207313 11 21.020567 11 24 11 35.05 19.95 44 31 44 33.09 44 35.11 43.670078 37 43.080078 29.480441 40.715728 23.878719 34.025154 23.101563 25.929688L41.355469 44.183594 44.183594 41.355469 23.316406 20.488281 14.941406 12.113281 8.828125 6z"/></svg>
